X:284
T: AUF GRUENEN BERGEN WARD GEBOREN
N: B0336
O: Europa, Mitteleuropa, Deutschland
R: Trink - Lied
M: 4/4
L: 1/8
K: G
DGB | d3cB2A2 | AGG2z
GAB | c2A2B2d2 | A4z
AA^A | B3BB2A2 | AGG2z
GAB | c2A2G2F2 | d4z
dcB | AecAG2BA | G4z

